P3
# Authored workshop tiles, 8 x 8.
8 8
255
30 100 130  30 100 130  30 100 130  30 100 130  12 42 58  12 42 58  12 42 58  12 42 58
30 100 130  30 100 130  30 100 130  30 100 130  12 42 58  12 42 58  12 42 58  12 42 58
30 100 130  30 100 130  30 100 130  30 100 130  12 42 58  12 42 58  12 42 58  12 42 58
30 100 130  30 100 130  30 100 130  30 100 130  12 42 58  12 42 58  12 42 58  12 42 58
12 42 58  12 42 58  12 42 58  12 42 58  30 100 130  30 100 130  30 100 130  30 100 130
12 42 58  12 42 58  12 42 58  12 42 58  30 100 130  30 100 130  30 100 130  30 100 130
12 42 58  12 42 58  12 42 58  12 42 58  30 100 130  30 100 130  30 100 130  30 100 130
12 42 58  12 42 58  12 42 58  12 42 58  30 100 130  30 100 130  30 100 130  30 100 130
